src/components/Chapters/assets/textBalloonReverse.svg

<svg width="499" height="469" viewBox="0 0 499 469" fill="none" xmlns="http://www.w3.org/2000/svg">
<path fill-rule="evenodd" clip-rule="evenodd" d="M17.0025 5.70219L498.787 0L490.784 326.861L262.92 329.558L298.357 463.008L200.84 330.292L8.99982 332.563L17.0025 5.70219Z" fill="#CBBEBD"/>
<path fill-rule="evenodd" clip-rule="evenodd" d="M8.21536 11.6943L490 5.99207L481.997 332.853L256.253 335.525L288.336 469L200.001 336.19L0.212708 338.555L8.21536 11.6943Z" fill="#FFF1F0"/>
</svg>

<svg width="499" height="469" fill="none" xmlns="http://www.w3.org/2000/svg"><path fill-rule="evenodd" clip-rule="evenodd" d="M17.003 5.702L498.786 0l-8.003 326.861-227.864 2.697 35.437 133.45-97.517-132.716L9 332.563l8.003-326.86z" fill="#CBBEBD"/><path fill-rule="evenodd" clip-rule="evenodd" d="M8.215 11.694L490 5.992l-8.003 326.861-225.744 2.672L288.336 469l-88.335-132.81L.213 338.555l8.002-326.86z" fill="#FFF1F0"/></svg>
